Newaita-dark/apps/64/com.github.ronnydo.wammer.svg

<svg height="64" viewBox="0 0 64 64" width="64" xmlns="http://www.w3.org/2000/svg" xmlns:xlink="http://www.w3.org/1999/xlink"><linearGradient id="a"><stop offset="0" stop-opacity=".313726"/><stop offset=".222222" stop-opacity=".27451"/><stop offset="1" stop-opacity="0"/></linearGradient><radialGradient id="b" cx="450.908936" cy="189.579361" gradientTransform="matrix(.00000035 -.156265 -.281277 -.0000002 84.415653 127.014257)" gradientUnits="userSpaceOnUse" r="21.166656" xlink:href="#a"/><radialGradient id="c" cx="450.908936" cy="189.579361" gradientTransform="matrix(-.00000035 .156265 .281277 .0000002 -20.909582 -15.231366)" gradientUnits="userSpaceOnUse" r="21.166656" xlink:href="#a"/><radialGradient id="d" cx="450.908936" cy="189.579361" gradientTransform="matrix(-.00000035 -.156265 .281277 -.0000002 -20.909582 127.014257)" gradientUnits="userSpaceOnUse" r="21.166656" xlink:href="#a"/><radialGradient id="e" cx="450.908936" cy="189.579361" gradientTransform="matrix(.00000035 .156265 -.281277 .0000002 84.415649 -15.231367)" gradientUnits="userSpaceOnUse" r="21.166656" xlink:href="#a"/><linearGradient id="f" gradientUnits="userSpaceOnUse" x1="31.753048" x2="31.753048" y1="56.067868" y2="8.438296"><stop offset="0" stop-color="#009688"/><stop offset="1" stop-color="#26a69a"/></linearGradient><linearGradient id="g" gradientUnits="userSpaceOnUse" x1="31.753048" x2="31.753048" y1="56.067868" y2="8.438296"><stop offset="0" stop-color="#78909c"/><stop offset="1" stop-color="#90a4ae"/></linearGradient><linearGradient id="h" gradientUnits="userSpaceOnUse" x1="31.753048" x2="31.753048" y1="56.067868" y2="5.79220799994"><stop offset="0" stop-color="#ffa726"/><stop offset="1" stop-color="#ffb74d"/></linearGradient><linearGradient id="i" gradientUnits="userSpaceOnUse" x1="31.753048" x2="31.753048" y1="56.067868" y2="8.438296"><stop offset="0" stop-color="#f44336"/><stop offset="1" stop-color="#ef5350"/></linearGradient><path d="m31.753906 55.890625h5.292969v-2.644531h-5.292969zm0 0" fill="url(#b)"/><path d="m31.753906 55.890625h-5.292968v2.648437h5.292968zm0 0" fill="url(#c)"/><path d="m31.753906 55.890625h-5.292968v-2.644531h5.292968zm0 0" fill="url(#d)"/><path d="m31.753906 55.890625h5.292969v2.648437h-5.292969zm0 0" fill="url(#e)"/><path d="m31.753906 40.523438c-3.882812 0-7.363281 1.652343-9.777344 4.296874l7.046876 10.253907c1.40625 1.324219 4.050781 1.324219 5.457031 0l7.050781-10.253907c-2.417969-2.644531-5.898438-4.296874-9.777344-4.296874zm0 0" fill="url(#f)"/><path d="m31.753906 8.769531c-10.566406 0-20.261718 3.605469-27.921875 9.664063l4.511719 6.5625c6.375-5.183594 14.515625-8.289063 23.410156-8.289063 8.894532 0 17.035156 3.105469 23.40625 8.289063l4.515625-6.5625c-7.664062-6.058594-17.355469-9.664063-27.921875-9.664063zm0 0" fill="url(#g)"/><path d="m31.753906 24.644531c-7.222656 0-13.8125 2.605469-18.886718 6.925781l4.53125 6.597657c3.769531-3.46875 8.804687-5.585938 14.355468-5.585938 5.546875 0 10.585938 2.117188 14.351563 5.585938l4.535156-6.597657c-5.078125-4.320312-11.667969-6.925781-18.886719-6.925781zm0 0" fill="url(#f)"/><path d="m31.753906 24.644531c-7.222656 0-13.8125 2.605469-18.886718 6.925781l4.53125 6.597657c3.769531-3.46875 8.804687-5.585938 14.355468-5.585938 5.546875 0 10.585938 2.117188 14.351563 5.585938l4.535156-6.597657c-5.078125-4.320312-11.667969-6.925781-18.886719-6.925781zm0 0" fill="url(#g)"/><path d="m31.753906 40.523438c-3.882812 0-7.363281 1.652343-9.777344 4.296874l7.046876 10.253907c1.40625 1.324219 4.050781 1.324219 5.457031 0l7.050781-10.253907c-2.417969-2.644531-5.898438-4.296874-9.777344-4.296874zm0 0" fill="url(#g)"/><path d="m31.753906 16.210938c-8.894531 0-17.035156 3.101562-23.410156 8.289062l-4.289062-6.242188c-.074219.058594-.148438.117188-.222657.175782l4.511719 6.5625c6.375-5.183594 14.515625-8.289063 23.410156-8.289063 8.894532 0 17.035156 3.105469 23.40625 8.289063l4.515625-6.5625c-.074219-.058594-.148437-.117188-.222656-.175782l-4.292969 6.242188c-6.371094-5.1875-14.511718-8.289062-23.40625-8.289062zm-18.671875 15.179687c-.074219.058594-.144531.121094-.214843.179687l4.53125 6.597657c3.769531-3.46875 8.804687-5.585938 14.355468-5.585938 5.546875 0 10.585938 2.117188 14.351563 5.585938l4.535156-6.597657c-.070313-.058593-.144531-.121093-.214844-.179687l-4.320312 6.28125c-3.765625-3.46875-8.804688-5.585937-14.351563-5.585937-5.550781 0-10.585937 2.117187-14.355468 5.585937zm9.089844 13.222656c-.066406.066407-.132813.136719-.195313.207031l7.046876 10.253907c1.40625 1.324219 4.050781 1.324219 5.457031 0l7.050781-10.253907c-.066406-.070312-.128906-.140624-.195312-.207031l-6.855469 9.964844c-1.40625 1.324219-4.050781 1.324219-5.457031 0zm0 0" fill-opacity=".235294"/><path d="m31.753906 8.769531c-10.566406 0-20.261718 3.605469-27.921875 9.664063l.296875.429687c7.613282-5.917969 17.191406-9.433593 27.625-9.433593 10.429688 0 20.011719 3.515624 27.625 9.433593l.296875-.429687c-7.664062-6.058594-17.355469-9.664063-27.921875-9.664063zm0 15.875c-7.222656 0-13.8125 2.605469-18.886718 6.925781l.285156.421876c5.039062-4.179688 11.515625-6.683594 18.601562-6.683594 7.085938 0 13.5625 2.503906 18.597656 6.683594l.289063-.421876c-5.078125-4.320312-11.667969-6.925781-18.886719-6.925781zm0 15.878907c-3.882812 0-7.363281 1.652343-9.777344 4.296874l.261719.382813c2.402344-2.480469 5.773438-4.019531 9.515625-4.019531 3.742188 0 7.113282 1.539062 9.515625 4.019531l.261719-.382813c-2.417969-2.644531-5.898438-4.296874-9.777344-4.296874zm0 0" fill="#fff" fill-opacity=".392157"/><path d="m31.753906 8.582031c-10.609375 0-20.34375 3.621094-28.039062 9.703125l-.136719.109375 4.726563 6.875.160156-.128906c6.339844-5.160156 14.4375-8.246094 23.289062-8.246094 8.847656 0 16.949219 3.085938 23.289063 8.246094l.15625.128906 4.730469-6.875-.140626-.109375c-7.691406-6.082031-17.425781-9.703125-28.035156-9.703125zm0 .375c10.460938 0 20.058594 3.550781 27.664063 9.515625l-4.300781 6.253906c-6.378907-5.136718-14.5-8.207031-23.363282-8.207031-8.863281 0-16.984375 3.070313-23.367187 8.207031l-4.300781-6.253906c7.609374-5.964844 17.207031-9.515625 27.667968-9.515625zm0 15.5c-7.265625 0-13.902344 2.621094-19.011718 6.972657l-.128907.109374 4.753907 6.914063.160156-.148437c3.734375-3.4375 8.722656-5.535157 14.226562-5.535157 5.5 0 10.492188 2.097657 14.226563 5.535157l.15625.148437 4.753906-6.914063-.128906-.109374c-5.109375-4.351563-11.742188-6.972657-19.007813-6.972657zm0 .375c7.113282 0 13.609375 2.546875 18.632813 6.777344l-4.316407 6.277344c-3.78125-3.414063-8.796874-5.492188-14.316406-5.492188-5.519531 0-10.535156 2.078125-14.320312 5.492188l-4.316406-6.277344c5.027343-4.230469 11.519531-6.777344 18.636718-6.777344zm0 15.503907c-3.9375 0-7.46875 1.675781-9.917968 4.359374l-.101563.109376 7.148437 10.394531.011719.011719c.746094.703124 1.804688 1.042968 2.859375 1.042968 1.054688 0 2.109375-.339844 2.855469-1.042968l.015625-.011719 7.144531-10.394531-.101562-.109376c-2.449219-2.683593-5.980469-4.359374-9.914063-4.359374zm0 .375c3.773438 0 7.160156 1.585937 9.535156 4.132812l-6.949218 10.105469c-.660156.613281-1.621094.929687-2.585938.929687-.96875 0-1.929687-.316406-2.589844-.929687l-6.949218-10.105469c2.378906-2.546875 5.761718-4.132812 9.539062-4.132812zm0 0" fill="#212121"/><path d="m31.753906 43.707031-2.003906-9.710937-8.289062 5.449218 5.453124-8.285156-9.714843-2.003906 9.714843-2.007812-5.453124-8.285157 8.289062 5.453125 2.003906-9.714844 2.003906 9.714844 8.285157-5.453125-5.449219 8.285157 9.710938 2.007812-9.710938 2.003906 5.449219 8.285156-8.285157-5.449218zm0 0" fill="url(#h)"/><path d="m21.460938 19.957031 4.820312 7.324219.632812-.132812-4.183593-6.359376zm20.582031 0-1.265625.832031-4.183594 6.359376.632812.132812zm-22.195313 9.746094-2.648437.546875 9.082031 1.871094.632812-.960938zm23.8125 0-7.066406 1.457031.632812.960938 9.078126-1.871094zm-13.910156 4.292969-7.019531 4.617187-1.269531 1.925781 8.289062-5.449218 2.003906 9.710937 2.003906-9.710937 8.285157 5.449218-1.265625-1.925781-7.019532-4.617187-2.003906 9.710937zm0 0" fill-opacity=".235294"/><path d="m254.006994 134.622863-16.02972-77.680082-66.306168 43.589587 43.620835-66.274921-77.711329-16.029719 77.711329-16.060966-43.620835-66.274921 66.306168 43.620834 16.02972-77.711329 16.029719 77.711329 66.274921-43.620834-43.589588 66.274921 77.680082 16.060966-77.680082 16.029719 43.589588 66.274921-66.274921-43.589587zm0 0" fill="none" stroke="#212121" stroke-linecap="round" stroke-linejoin="round" stroke-width="3" transform="matrix(.125012 0 0 .125012 0 26.877566)"/><path d="m31.683594 35.308594-.941406-4.550782-3.882813 2.554688 2.554687-3.882812-4.550781-.941407 4.550781-.9375-2.554687-3.882812 3.882813 2.554687.941406-4.554687.941406 4.554687 3.882812-2.554687-2.554687 3.882812 4.550781.9375-4.550781.941407 2.554687 3.882812-3.882812-2.554688zm0 0" fill="url(#i)"/></svg>

<?xml version="1.0" encoding="UTF-8"?>
<svg xmlns="http://www.w3.org/2000/svg" xmlns:xlink="http://www.w3.org/1999/xlink" width="64px" height="64px" viewBox="0 0 64 64" version="1.1">
<defs>
<radialGradient id="radial0" gradientUnits="userSpaceOnUse" cx="450.908936" cy="189.579361" fx="450.908936" fy="189.579361" r="21.166656" gradientTransform="matrix(0.000000348341,-0.156265,-0.281277,-0.000000203077,84.415653,127.014257)">
<stop offset="0" style="stop-color:rgb(0%,0%,0%);stop-opacity:0.313726;"/>
<stop offset="0.222222" style="stop-color:rgb(0%,0%,0%);stop-opacity:0.27451;"/>
<stop offset="1" style="stop-color:rgb(0%,0%,0%);stop-opacity:0;"/>
</radialGradient>
<radialGradient id="radial1" gradientUnits="userSpaceOnUse" cx="450.908936" cy="189.579361" fx="450.908936" fy="189.579361" r="21.166656" gradientTransform="matrix(-0.000000348341,0.156265,0.281277,0.000000203077,-20.909582,-15.231366)">
<stop offset="0" style="stop-color:rgb(0%,0%,0%);stop-opacity:0.313726;"/>
<stop offset="0.222222" style="stop-color:rgb(0%,0%,0%);stop-opacity:0.27451;"/>
<stop offset="1" style="stop-color:rgb(0%,0%,0%);stop-opacity:0;"/>
</radialGradient>
<radialGradient id="radial2" gradientUnits="userSpaceOnUse" cx="450.908936" cy="189.579361" fx="450.908936" fy="189.579361" r="21.166656" gradientTransform="matrix(-0.000000348341,-0.156265,0.281277,-0.000000203077,-20.909582,127.014257)">
<stop offset="0" style="stop-color:rgb(0%,0%,0%);stop-opacity:0.313726;"/>
<stop offset="0.222222" style="stop-color:rgb(0%,0%,0%);stop-opacity:0.27451;"/>
<stop offset="1" style="stop-color:rgb(0%,0%,0%);stop-opacity:0;"/>
</radialGradient>
<radialGradient id="radial3" gradientUnits="userSpaceOnUse" cx="450.908936" cy="189.579361" fx="450.908936" fy="189.579361" r="21.166656" gradientTransform="matrix(0.000000348341,0.156265,-0.281277,0.000000203077,84.415649,-15.231367)">
<stop offset="0" style="stop-color:rgb(0%,0%,0%);stop-opacity:0.313726;"/>
<stop offset="0.222222" style="stop-color:rgb(0%,0%,0%);stop-opacity:0.27451;"/>
<stop offset="1" style="stop-color:rgb(0%,0%,0%);stop-opacity:0;"/>
</radialGradient>
<linearGradient id="linear0" gradientUnits="userSpaceOnUse" x1="254" y1="233.5" x2="254" y2="-147.5" gradientTransform="matrix(0.125012,0,0,0.125012,0,26.877566)">
<stop offset="0" style="stop-color:rgb(0%,58.823532%,53.333336%);stop-opacity:1;"/>
<stop offset="1" style="stop-color:rgb(14.901961%,65.098041%,60.392159%);stop-opacity:1;"/>
</linearGradient>
<linearGradient id="linear1" gradientUnits="userSpaceOnUse" x1="254" y1="233.5" x2="254" y2="-147.5" gradientTransform="matrix(0.125012,0,0,0.125012,0,26.877566)">
<stop offset="0" style="stop-color:rgb(47.058824%,56.470591%,61.176473%);stop-opacity:1;"/>
<stop offset="1" style="stop-color:rgb(56.470591%,64.313728%,68.235296%);stop-opacity:1;"/>
</linearGradient>
<linearGradient id="linear2" gradientUnits="userSpaceOnUse" x1="254" y1="233.5" x2="254" y2="-147.5" gradientTransform="matrix(0.125012,0,0,0.125012,0,26.877566)">
<stop offset="0" style="stop-color:rgb(0%,58.823532%,53.333336%);stop-opacity:1;"/>
<stop offset="1" style="stop-color:rgb(14.901961%,65.098041%,60.392159%);stop-opacity:1;"/>
</linearGradient>
<linearGradient id="linear3" gradientUnits="userSpaceOnUse" x1="254" y1="233.5" x2="254" y2="-147.5" gradientTransform="matrix(0.125012,0,0,0.125012,0,26.877566)">
<stop offset="0" style="stop-color:rgb(47.058824%,56.470591%,61.176473%);stop-opacity:1;"/>
<stop offset="1" style="stop-color:rgb(56.470591%,64.313728%,68.235296%);stop-opacity:1;"/>
</linearGradient>
<linearGradient id="linear4" gradientUnits="userSpaceOnUse" x1="254" y1="233.5" x2="254" y2="-147.5" gradientTransform="matrix(0.125012,0,0,0.125012,0,26.877566)">
<stop offset="0" style="stop-color:rgb(47.058824%,56.470591%,61.176473%);stop-opacity:1;"/>
<stop offset="1" style="stop-color:rgb(56.470591%,64.313728%,68.235296%);stop-opacity:1;"/>
</linearGradient>
<linearGradient id="linear5" gradientUnits="userSpaceOnUse" x1="254" y1="233.5" x2="254" y2="-168.666672" gradientTransform="matrix(0.125012,0,0,0.125012,0,26.877566)">
<stop offset="0" style="stop-color:rgb(100%,65.490198%,14.901961%);stop-opacity:1;"/>
<stop offset="1" style="stop-color:rgb(100%,71.764708%,30.19608%);stop-opacity:1;"/>
</linearGradient>
<linearGradient id="linear6" gradientUnits="userSpaceOnUse" x1="254" y1="233.5" x2="254" y2="-147.5" gradientTransform="matrix(0.125012,0,0,0.125012,0,26.877566)">
<stop offset="0" style="stop-color:rgb(95.686275%,26.274511%,21.176471%);stop-opacity:1;"/>
<stop offset="1" style="stop-color:rgb(93.725491%,32.549021%,31.37255%);stop-opacity:1;"/>
</linearGradient>
</defs>
<g id="surface1">
<path style=" stroke:none;fill-rule:nonzero;fill:url(#radial0);" d="M 31.753906 55.890625 L 37.046875 55.890625 L 37.046875 53.246094 L 31.753906 53.246094 Z M 31.753906 55.890625 "/>
<path style=" stroke:none;fill-rule:nonzero;fill:url(#radial1);" d="M 31.753906 55.890625 L 26.460938 55.890625 L 26.460938 58.539062 L 31.753906 58.539062 Z M 31.753906 55.890625 "/>
<path style=" stroke:none;fill-rule:nonzero;fill:url(#radial2);" d="M 31.753906 55.890625 L 26.460938 55.890625 L 26.460938 53.246094 L 31.753906 53.246094 Z M 31.753906 55.890625 "/>
<path style=" stroke:none;fill-rule:nonzero;fill:url(#radial3);" d="M 31.753906 55.890625 L 37.046875 55.890625 L 37.046875 58.539062 L 31.753906 58.539062 Z M 31.753906 55.890625 "/>
<path style=" stroke:none;fill-rule:nonzero;fill:url(#linear0);" d="M 31.753906 40.523438 C 27.871094 40.523438 24.390625 42.175781 21.976562 44.820312 L 29.023438 55.074219 C 30.429688 56.398438 33.074219 56.398438 34.480469 55.074219 L 41.53125 44.820312 C 39.113281 42.175781 35.632812 40.523438 31.753906 40.523438 Z M 31.753906 40.523438 "/>
<path style=" stroke:none;fill-rule:nonzero;fill:url(#linear1);" d="M 31.753906 8.769531 C 21.1875 8.769531 11.492188 12.375 3.832031 18.433594 L 8.34375 24.996094 C 14.71875 19.8125 22.859375 16.707031 31.753906 16.707031 C 40.648438 16.707031 48.789062 19.8125 55.160156 24.996094 L 59.675781 18.433594 C 52.011719 12.375 42.320312 8.769531 31.753906 8.769531 Z M 31.753906 8.769531 "/>
<path style=" stroke:none;fill-rule:nonzero;fill:url(#linear2);" d="M 31.753906 24.644531 C 24.53125 24.644531 17.941406 27.25 12.867188 31.570312 L 17.398438 38.167969 C 21.167969 34.699219 26.203125 32.582031 31.753906 32.582031 C 37.300781 32.582031 42.339844 34.699219 46.105469 38.167969 L 50.640625 31.570312 C 45.5625 27.25 38.972656 24.644531 31.753906 24.644531 Z M 31.753906 24.644531 "/>
<path style=" stroke:none;fill-rule:nonzero;fill:url(#linear3);" d="M 31.753906 24.644531 C 24.53125 24.644531 17.941406 27.25 12.867188 31.570312 L 17.398438 38.167969 C 21.167969 34.699219 26.203125 32.582031 31.753906 32.582031 C 37.300781 32.582031 42.339844 34.699219 46.105469 38.167969 L 50.640625 31.570312 C 45.5625 27.25 38.972656 24.644531 31.753906 24.644531 Z M 31.753906 24.644531 "/>
<path style=" stroke:none;fill-rule:nonzero;fill:url(#linear4);" d="M 31.753906 40.523438 C 27.871094 40.523438 24.390625 42.175781 21.976562 44.820312 L 29.023438 55.074219 C 30.429688 56.398438 33.074219 56.398438 34.480469 55.074219 L 41.53125 44.820312 C 39.113281 42.175781 35.632812 40.523438 31.753906 40.523438 Z M 31.753906 40.523438 "/>
<path style=" stroke:none;fill-rule:nonzero;fill:rgb(0%,0%,0%);fill-opacity:0.235294;" d="M 31.753906 16.210938 C 22.859375 16.210938 14.71875 19.3125 8.34375 24.5 L 4.054688 18.257812 C 3.980469 18.316406 3.90625 18.375 3.832031 18.433594 L 8.34375 24.996094 C 14.71875 19.8125 22.859375 16.707031 31.753906 16.707031 C 40.648438 16.707031 48.789062 19.8125 55.160156 24.996094 L 59.675781 18.433594 C 59.601562 18.375 59.527344 18.316406 59.453125 18.257812 L 55.160156 24.5 C 48.789062 19.3125 40.648438 16.210938 31.753906 16.210938 Z M 13.082031 31.390625 C 13.007812 31.449219 12.9375 31.511719 12.867188 31.570312 L 17.398438 38.167969 C 21.167969 34.699219 26.203125 32.582031 31.753906 32.582031 C 37.300781 32.582031 42.339844 34.699219 46.105469 38.167969 L 50.640625 31.570312 C 50.570312 31.511719 50.496094 31.449219 50.425781 31.390625 L 46.105469 37.671875 C 42.339844 34.203125 37.300781 32.085938 31.753906 32.085938 C 26.203125 32.085938 21.167969 34.203125 17.398438 37.671875 Z M 22.171875 44.613281 C 22.105469 44.679688 22.039062 44.75 21.976562 44.820312 L 29.023438 55.074219 C 30.429688 56.398438 33.074219 56.398438 34.480469 55.074219 L 41.53125 44.820312 C 41.464844 44.75 41.402344 44.679688 41.335938 44.613281 L 34.480469 54.578125 C 33.074219 55.902344 30.429688 55.902344 29.023438 54.578125 Z M 22.171875 44.613281 "/>
<path style=" stroke:none;fill-rule:nonzero;fill:rgb(100%,100%,100%);fill-opacity:0.392157;" d="M 31.753906 8.769531 C 21.1875 8.769531 11.492188 12.375 3.832031 18.433594 L 4.128906 18.863281 C 11.742188 12.945312 21.320312 9.429688 31.753906 9.429688 C 42.183594 9.429688 51.765625 12.945312 59.378906 18.863281 L 59.675781 18.433594 C 52.011719 12.375 42.320312 8.769531 31.753906 8.769531 Z M 31.753906 24.644531 C 24.53125 24.644531 17.941406 27.25 12.867188 31.570312 L 13.152344 31.992188 C 18.191406 27.8125 24.667969 25.308594 31.753906 25.308594 C 38.839844 25.308594 45.316406 27.8125 50.351562 31.992188 L 50.640625 31.570312 C 45.5625 27.25 38.972656 24.644531 31.753906 24.644531 Z M 31.753906 40.523438 C 27.871094 40.523438 24.390625 42.175781 21.976562 44.820312 L 22.238281 45.203125 C 24.640625 42.722656 28.011719 41.183594 31.753906 41.183594 C 35.496094 41.183594 38.867188 42.722656 41.269531 45.203125 L 41.53125 44.820312 C 39.113281 42.175781 35.632812 40.523438 31.753906 40.523438 Z M 31.753906 40.523438 "/>
<path style=" stroke:none;fill-rule:nonzero;fill:rgb(12.941177%,12.941177%,12.941177%);fill-opacity:1;" d="M 31.753906 8.582031 C 21.144531 8.582031 11.410156 12.203125 3.714844 18.285156 L 3.578125 18.394531 L 8.304688 25.269531 L 8.464844 25.140625 C 14.804688 19.980469 22.902344 16.894531 31.753906 16.894531 C 40.601562 16.894531 48.703125 19.980469 55.042969 25.140625 L 55.199219 25.269531 L 59.929688 18.394531 L 59.789062 18.285156 C 52.097656 12.203125 42.363281 8.582031 31.753906 8.582031 Z M 31.753906 8.957031 C 42.214844 8.957031 51.8125 12.507812 59.417969 18.472656 L 55.117188 24.726562 C 48.738281 19.589844 40.617188 16.519531 31.753906 16.519531 C 22.890625 16.519531 14.769531 19.589844 8.386719 24.726562 L 4.085938 18.472656 C 11.695312 12.507812 21.292969 8.957031 31.753906 8.957031 Z M 31.753906 24.457031 C 24.488281 24.457031 17.851562 27.078125 12.742188 31.429688 L 12.613281 31.539062 L 17.367188 38.453125 L 17.527344 38.304688 C 21.261719 34.867188 26.25 32.769531 31.753906 32.769531 C 37.253906 32.769531 42.246094 34.867188 45.980469 38.304688 L 46.136719 38.453125 L 50.890625 31.539062 L 50.761719 31.429688 C 45.652344 27.078125 39.019531 24.457031 31.753906 24.457031 Z M 31.753906 24.832031 C 38.867188 24.832031 45.363281 27.378906 50.386719 31.609375 L 46.070312 37.886719 C 42.289062 34.472656 37.273438 32.394531 31.753906 32.394531 C 26.234375 32.394531 21.21875 34.472656 17.433594 37.886719 L 13.117188 31.609375 C 18.144531 27.378906 24.636719 24.832031 31.753906 24.832031 Z M 31.753906 40.335938 C 27.816406 40.335938 24.285156 42.011719 21.835938 44.695312 L 21.734375 44.804688 L 28.882812 55.199219 L 28.894531 55.210938 C 29.640625 55.914062 30.699219 56.253906 31.753906 56.253906 C 32.808594 56.253906 33.863281 55.914062 34.609375 55.210938 L 34.625 55.199219 L 41.769531 44.804688 L 41.667969 44.695312 C 39.21875 42.011719 35.6875 40.335938 31.753906 40.335938 Z M 31.753906 40.710938 C 35.527344 40.710938 38.914062 42.296875 41.289062 44.84375 L 34.339844 54.949219 C 33.679688 55.5625 32.71875 55.878906 31.753906 55.878906 C 30.785156 55.878906 29.824219 55.5625 29.164062 54.949219 L 22.214844 44.84375 C 24.59375 42.296875 27.976562 40.710938 31.753906 40.710938 Z M 31.753906 40.710938 "/>
<path style=" stroke:none;fill-rule:nonzero;fill:url(#linear5);" d="M 31.753906 43.707031 L 29.75 33.996094 L 21.460938 39.445312 L 26.914062 31.160156 L 17.199219 29.15625 L 26.914062 27.148438 L 21.460938 18.863281 L 29.75 24.316406 L 31.753906 14.601562 L 33.757812 24.316406 L 42.042969 18.863281 L 36.59375 27.148438 L 46.304688 29.15625 L 36.59375 31.160156 L 42.042969 39.445312 L 33.757812 33.996094 Z M 31.753906 43.707031 "/>
<path style=" stroke:none;fill-rule:nonzero;fill:rgb(0%,0%,0%);fill-opacity:0.235294;" d="M 21.460938 19.957031 L 26.28125 27.28125 L 26.914062 27.148438 L 22.730469 20.789062 Z M 42.042969 19.957031 L 40.777344 20.789062 L 36.59375 27.148438 L 37.226562 27.28125 Z M 19.847656 29.703125 L 17.199219 30.25 L 26.28125 32.121094 L 26.914062 31.160156 Z M 43.660156 29.703125 L 36.59375 31.160156 L 37.226562 32.121094 L 46.304688 30.25 Z M 29.75 33.996094 L 22.730469 38.613281 L 21.460938 40.539062 L 29.75 35.089844 L 31.753906 44.800781 L 33.757812 35.089844 L 42.042969 40.539062 L 40.777344 38.613281 L 33.757812 33.996094 L 31.753906 43.707031 Z M 29.75 33.996094 "/>
<path style="fill:none;stroke-width:3;stroke-linecap:round;stroke-linejoin:round;stroke:rgb(12.941177%,12.941177%,12.941177%);stroke-opacity:1;stroke-miterlimit:4;" d="M 254.006994 134.622863 L 237.977274 56.942781 L 171.671106 100.532368 L 215.291941 34.257447 L 137.580612 18.227728 L 215.291941 2.166762 L 171.671106 -64.108159 L 237.977274 -20.487325 L 254.006994 -98.198654 L 270.036713 -20.487325 L 336.311634 -64.108159 L 292.722046 2.166762 L 370.402128 18.227728 L 292.722046 34.257447 L 336.311634 100.532368 L 270.036713 56.942781 Z M 254.006994 134.622863 " transform="matrix(0.125012,0,0,0.125012,0,26.877566)"/>
<path style=" stroke:none;fill-rule:nonzero;fill:url(#linear6);" d="M 31.683594 35.308594 L 30.742188 30.757812 L 26.859375 33.3125 L 29.414062 29.429688 L 24.863281 28.488281 L 29.414062 27.550781 L 26.859375 23.667969 L 30.742188 26.222656 L 31.683594 21.667969 L 32.625 26.222656 L 36.507812 23.667969 L 33.953125 27.550781 L 38.503906 28.488281 L 33.953125 29.429688 L 36.507812 33.3125 L 32.625 30.757812 Z M 31.683594 35.308594 "/>
</g>
</svg>
